out/headset.svg

<svg width="24" height="18" viewBox="0 0 24 18" fill="none" xmlns="http://www.w3.org/2000/svg">
<path d="M11.9996 1.872C14.7851 1.872 17.2886 2.8335 18.9746 4.563C20.3619 4.74342 21.6706 5.30994 22.7516 6.198C20.8601 2.223 16.9421 0 11.9996 0C7.12463 0 3.17963 2.22 1.26562 6.183C2.25673 5.37407 3.43901 4.83329 4.69913 4.6125C6.35363 2.808 8.96063 1.872 11.9996 1.872Z" fill="white"/>
<path d="M18.0004 18C16.4396 18.0018 14.9399 17.3935 13.8214 16.305L13.8184 16.302C13.6891 16.2049 13.5504 16.1209 13.4044 16.0515C12.9647 15.8474 12.485 15.7444 12.0004 15.75C11.3794 15.75 10.9069 15.9045 10.5979 16.0515C10.4513 16.1209 10.3121 16.2048 10.1824 16.302L10.1794 16.305C9.47408 16.9897 8.61138 17.4906 7.66713 17.7637C6.72287 18.0369 5.72597 18.0738 4.76409 17.8713C3.80221 17.6689 2.9048 17.2332 2.15078 16.6026C1.39676 15.9719 0.809212 15.1657 0.43981 14.2548C0.0704071 13.3439 -0.0695399 12.3562 0.0322737 11.3785C0.134087 10.4009 0.474543 9.46317 1.02371 8.64791C1.57287 7.83266 2.31392 7.16482 3.18169 6.7031C4.04947 6.24139 5.01739 5.99994 6.00035 6H18.0004C19.5917 6 21.1178 6.63214 22.243 7.75736C23.3682 8.88258 24.0004 10.4087 24.0004 12C24.0004 13.5913 23.3682 15.1174 22.243 16.2426C21.1178 17.3679 19.5917 18 18.0004 18Z" fill="white"/>
</svg>

<svg width="24" height="18" viewBox="0 0 24 18" fill="none" xmlns="http://www.w3.org/2000/svg"><path d="M12 1.872c2.785 0 5.289.961 6.975 2.691a7.467 7.467 0 0 1 3.777 1.635C20.86 2.223 16.942 0 12 0 7.125 0 3.18 2.22 1.266 6.183a7.469 7.469 0 0 1 3.433-1.57C6.354 2.808 8.961 1.871 12 1.871Z" fill="#fff"/><path d="M18 18a5.982 5.982 0 0 1-4.179-1.695l-.003-.003a2.42 2.42 0 0 0-.414-.25A3.245 3.245 0 0 0 12 15.75c-.62 0-1.093.155-1.402.302a2.403 2.403 0 0 0-.416.25l-.003.003A6 6 0 1 1 6 6h12a6 6 0 1 1 0 12Z" fill="#fff"/></svg>
